wp-content/themes/ecoexplore/dist/images/made-with-unity_d6807042.svg

<svg id="unity-logo" class="svg-unity-logo" aria-labelledby="unity-logo-title" role="img" xmlns="http://www.w3.org/2000/svg" viewBox="0 0 266 46">
  <title id="unity-logo-title">Made With Unity</title>
  <g fill="#000000" fill-rule="evenodd">
    <path d="M7.37905882 13.730448C6.14890756 12.446128 5.12544538 11.357216 4.30978151 10.461136 3.49337815 9.567632 2.97203361 9.009376 2.74611765 8.78968 2.15747899 8.217808 1.67384874 7.945488 1.29411765 7.971616.915495798 7.99848.623394958 8.212656.419294118 8.615984.215932773 9.01968.0876302521 9.54776.0347563025 10.20096-.0155294118 10.853792-.0114621849 11.510672.0480672269 12.170128.108336134 12.829952.223327731 13.440096.394521008 14.001664.564605042 14.564704.762789916 14.954784.989445378 15.175216 1.79105882 15.954272 2.7194958 16.872432 3.75848739 17.915344 4.96053782 16.716032 6.64252101 15.578176 8.22208403 14.649344 7.87378151 14.266992 7.5154958 13.873232 7.37905882 13.730448M35.202958 19.394336C36.0019832 20.78648 36.5906218 22.123424 36.9722017 23.401856 37.353042 24.679552 37.482084 25.861568 37.3611765 26.947168 37.2391597 28.031296 36.7817815 28.978528 35.9864538 29.789232 35.0077311 30.787248 33.8267563 31.299504 32.4472269 31.330048 32.4368739 31.330416 32.4283697 31.333728 32.4180168 31.334096 32.0689748 31.339984 31.7136471 31.324528 31.3516639 31.28736 30.8184874 31.232896 30.2657143 31.115504 29.7040672 30.9672 29.123563 30.814112 28.5330756 30.627168 27.9222521 30.373616 26.8551597 29.93312 25.7566387 29.360512 24.6314958 28.68008 24.065042 28.337472 23.4941513 27.976096 22.9129076 27.573136 21.1769412 26.370144 19.4616807 25.05528 17.7674958 23.62928 17.3962689 23.316848 17.0427899 22.995584 16.6785882 22.679472 16.1997647 22.967984 15.7290756 23.262384 15.272437 23.567088 14.1191933 24.335104 13.1097815 25.154272 12.2331092 26.020912 12.9533782 26.660128 13.6862185 27.30008 14.4427227 27.940768 16.0910588 29.339536 17.7652773 30.62864 19.4638992 31.80992 20.7162353 32.680976 21.9807731 33.429488 23.2508571 34.118752 23.2837647 34.136784 23.317042 34.154448 23.3499496 34.172112 23.7699832 34.398432 24.1877983 34.646096 24.6100504 34.852176 24.7975126 34.944176 24.9820168 35.020352 25.1683697 35.105728 26.2524706 35.602528 27.318084 35.999232 28.3615126 36.274864 28.7941176 36.389312 29.2241345 36.486832 29.6497143 36.563376 31.2784538 36.854832 32.8387899 36.809936 34.3336807 36.43016 35.8270924 36.048912 37.2058824 35.212448 38.4730084 33.921136 39.473916 32.900672 40.0858487 31.728592 40.3102857 30.406 40.5317647 29.083408 40.4552269 27.674704 40.0806723 26.17952 39.7046387 24.685808 39.0745882 23.128432 38.1897815 21.506656 37.3057143 19.885984 36.2767059 18.261632 35.1020168 16.636176 34.796605 16.213344 34.4656807 15.793824 34.1465882 15.372464 34.1225546 16.219232 34.0804034 16.952288 34.0404706 17.502816 34.4501513 18.136144 34.8431933 18.767632 35.202958 19.394336M21.9974118 37.440688C21.4949244 39.143424 21.0589916 40.569792 20.687395 41.720896 20.3180168 42.871632 20.0928403 43.599904 20.0148235 43.904608 19.8114622 44.697648 19.8162689 45.250752 20.0288739 45.565024 20.2418487 45.878192 20.5742521 46.022816 21.0271933 45.997056 21.4801345 45.97056 22.0036975 45.817104 22.5986218 45.535952 23.1916975 45.25296 23.7611092 44.921024 24.3050084 44.539776 24.8492773 44.157792 25.3225546 43.753728 25.7255798 43.325376 26.1304538 42.897392 26.3711597 42.5316 26.4495462 42.225792 26.7264874 41.145712 27.0611092 39.886048 27.4489748 38.469248 25.8047059 38.0328 23.9733445 37.152176 22.3752941 36.254992 22.217042 36.746272 22.0532437 37.251904 21.9974118 37.440688"/>
    <path d="M13.0140168 10.626736C13.8259832 9.241952 14.694521 8.065824 15.6163025 7.097984 16.5377143 6.13088 17.5020168 5.428736 18.5066218 4.990448 19.5112269 4.552896 20.5642689 4.473776 21.6672269 4.753824 23.0249412 5.09864 24.0609748 5.8604 24.7775462 7.03432 24.7830924 7.042784 24.7901176 7.048304 24.7956639 7.057504 24.9753613 7.355216 25.1395294 7.66912 25.2881681 7.999584 25.5074286 8.486448 25.6815798 9.02152 25.8335462 9.579776 25.9903193 10.1568 26.1226891 10.759216 26.2081008 11.412416 26.3578487 12.552848 26.4088739 13.785648 26.3792941 15.095728 26.3645042 15.755184 26.3356639 16.427888 26.275395 17.130768 26.0968067 19.228368 25.8102521 21.36424 25.4164706 23.53728 25.3303193 24.013472 25.2275294 24.478992 25.1343529 24.950768 25.6250084 25.21904 26.1167731 25.477744 26.6096471 25.719152 27.854958 26.328928 29.0721681 26.789664 30.264605 27.111664 30.4609412 26.171424 30.6513613 25.219776 30.8306891 24.24752 31.2237311 22.127104 31.5080672 20.03944 31.6866555 17.984896 31.8182857 16.46984 31.8375126 15.005568 31.8020168 13.56632 31.8012773 13.528784 31.8001681 13.491616 31.7990588 13.45408 31.7857479 12.978992 31.7924034 12.495072 31.7609748 12.02808 31.7472941 11.820528 31.721042 11.623648 31.7021849 11.420144 31.5923697 10.237392 31.4049076 9.120512 31.1231597 8.08312 31.0063193 7.652928 30.8761681 7.233776 30.7297479 6.828608 30.1692101 5.27896 29.3502185 3.956736 28.2720336 2.858256 27.1938487 1.761616 25.776605.991392 24.0191933.545008 22.6307899.192096 21.3048739.250976 20.0418151.718704 18.7802353 1.189008 17.592605 1.9596 16.4789244 3.029744 15.3674622 4.100992 14.3273613 5.42248 13.3586218 6.996048 12.3902521 8.568512 11.491395 10.267568 10.6642689 12.092848 10.4490756 12.567568 10.2494118 13.062528 10.0427227 13.54792 10.7914622 13.145328 11.4503529 12.815232 11.9491429 12.57456 12.2955966 11.9048 12.6483361 11.250128 13.0140168 10.626736M35.7915966 13.206416C37.5242353 12.788368 38.9832605 12.450544 40.1708908 12.19552 41.3566723 11.938656 42.1031933 11.768272 42.4071261 11.683264 43.1991261 11.462096 43.6779496 11.18168 43.8450756 10.84128 44.0110924 10.501248 43.9707899 10.14208 43.7219496 9.76488 43.4723697 9.38768 43.0767395 9.012688 42.5346891 8.641008 41.9922689 8.271168 41.4184202 7.946224 40.8149916 7.668016 40.2104538 7.389808 39.6221849 7.184096 39.0479664 7.05088 38.4730084 6.915456 38.0341176 6.891536 37.7290756 6.976544 36.650521 7.277936 35.3874622 7.619072 33.960605 7.993328 34.4028235 9.62872 34.5522017 11.647568 34.5706891 13.473584 35.0772437 13.364288 35.5993277 13.252784 35.7915966 13.206416"/>
    <path d="M16.9514622 34.356848C15.3404706 34.349488 13.8825546 34.188304 12.579563 33.87808 11.2773109 33.56712 10.1843361 33.087248 9.30026891 32.440304 8.41768067 31.79336 7.82201681 30.925616 7.51438655 29.834496 7.13576471 28.492032 7.28033613 27.218016 7.94366387 26.013552 7.94847059 26.004352 7.94957983 25.99552 7.9547563 25.98632 8.12373109 25.68272 8.3152605 25.383904 8.52823529 25.090608 8.84215126 24.658208 9.22077311 24.240528 9.63045378 23.830576 10.0541849 23.407008 10.5123025 22.991536 11.038084 22.59152 11.9550588 21.891952 13.0025546 21.231392 14.1572773 20.602112 14.738521 20.285264 15.3382521 19.973568 15.9797647 19.674016 17.8943193 18.779408 19.8961345 17.9584 21.9841008 17.21136 22.441479 17.0476 22.8981176 16.903344 23.3551261 16.74768 23.3432941 16.190528 23.3225882 15.637424 23.2856134 15.09168 23.193916 13.71352 22.9861176 12.433984 22.6703529 11.245344 21.7537479 11.546 20.8304874 11.857696 19.8950252 12.189632 17.8532773 12.910912 15.8943529 13.709472 14.0175126 14.583104 12.6335462 15.227104 11.3497815 15.942496 10.1151933 16.692848 10.0830252 16.712352 10.0508571 16.731856 10.0190588 16.75136 9.61196639 17.000496 9.1874958 17.236752 8.79704202 17.497296 8.6232605 17.612848 8.4650084 17.73392 8.29751261 17.852048 7.32322689 18.538 6.44507563 19.257808 5.68339496 20.019568 5.36763025 20.335312 5.06813445 20.656944 4.78860504 20.985936 3.72040336 22.244128 2.97942857 23.61088 2.56235294 25.089504 2.1474958 26.567392 2.18594958 28.17408 2.67623529 29.911776 3.06336134 31.284784 3.77734454 32.398352 4.81596639 33.252848 5.85606723 34.105136 7.12023529 34.743616 8.60847059 35.168288 10.0963361 35.59112 11.7661176 35.82664 13.6196639 35.874848 15.4721008 35.923424 17.3999664 35.84872 19.4017815 35.648896 19.9223866 35.597008 20.4529748 35.521568 20.9787563 35.457168 20.2540504 35.012992 19.6376807 34.610032 19.1788235 34.300544 18.4223193 34.336976 17.6765378 34.36016 16.9514622 34.356848M52 31.104L54.176 31.104 55.488 23.648C55.968 20.96 57.344 19.52 59.552 19.52 61.6 19.52 62.272 21.152 61.824 23.648L60.512 31.104 62.688 31.104 64 23.648C64.48 20.96 65.728 19.52 67.968 19.52 70.048 19.52 70.72 21.12 70.272 23.648L69.504 28.16C69.12 30.176 69.76 31.104 71.68 31.104L73.152 31.104 73.472 29.344 72.256 29.344C71.648 29.344 71.52 28.992 71.616 28.32L72.48 23.456C73.12 19.872 71.488 17.568 68.64 17.568 66.72 17.568 64.96 18.464 63.872 20.416 63.424 18.688 62.176 17.568 60.288 17.568 58.24 17.568 56.96 18.656 56 20.256L56.512 17.856 54.336 17.856 52 31.104zM81.536 31.36C83.552 31.36 85.248 30.272 86.4 28.384L86.304 28.8C86.144 30.208 86.56 31.104 88.512 31.104L89.952 31.104 90.272 29.344 89.056 29.344C88.448 29.344 88.32 28.992 88.416 28.32L90.24 17.856 88.064 17.856 87.52 21.472C86.88 19.072 84.928 17.568 82.592 17.568 79.008 17.568 76.064 20.576 76.064 24.992 76.064 28.864 78.336 31.36 81.536 31.36zM82.08 29.472C79.776 29.472 78.304 27.648 78.304 25.024 78.304 21.824 80.16 19.488 82.976 19.488 85.408 19.488 86.912 21.472 86.912 24.064 86.912 27.232 84.8 29.472 82.08 29.472zM98.56 31.36C100.608 31.36 102.496 30.24 103.584 28.352L103.488 28.768C103.328 30.176 103.744 31.104 105.696 31.104L107.168 31.104 107.456 29.344 106.24 29.344C105.632 29.344 105.504 29.024 105.632 28.32L109.216 8 107.04 8 104.672 21.248C104.032 19.136 102.08 17.568 99.648 17.568 95.968 17.568 92.96 20.576 92.96 24.992 92.96 28.704 95.2 31.36 98.56 31.36zM99.136 29.472C96.704 29.472 95.2 27.648 95.2 25.024 95.2 21.824 97.088 19.488 100.032 19.488 102.56 19.488 104.16 21.472 104.128 24.064 104.128 27.232 101.984 29.472 99.136 29.472zM112.544 25.664L123.424 24.512C123.36 20.512 121.312 17.568 117.184 17.568 113.312 17.568 110.304 20.672 110.304 24.768 110.304 28.544 113.024 31.36 117.088 31.36 119.488 31.36 121.312 30.528 122.592 29.216L121.216 27.872C120.288 28.832 119.008 29.536 117.088 29.536 114.592 29.536 112.896 27.968 112.544 25.664zM112.512 24C112.8 21.248 114.56 19.36 117.152 19.36 119.808 19.36 120.928 21.216 121.12 23.104L112.512 24zM137.376 31.392L137.728 31.392 142.72 23.424C143.2 22.624 143.584 21.536 143.584 21.536 143.584 21.536 143.712 22.656 143.968 23.52L146.176 31.392 146.528 31.392 154.016 17.856 151.744 17.856 147.712 25.184C147.232 26.048 146.816 27.2 146.816 27.2 146.816 27.2 146.656 26.016 146.432 25.184L144.256 17.664 143.968 17.664 139.392 25.28C138.88 26.144 138.4 27.296 138.4 27.296 138.4 27.296 138.272 26.112 138.08 25.28L136.448 17.856 134.176 17.856 137.376 31.392zM159.328 13.984C160.16 13.984 160.864 13.376 160.864 12.448 160.864 11.52 160.128 10.88 159.328 10.88 158.496 10.88 157.792 11.52 157.792 12.448 157.792 13.376 158.528 13.984 159.328 13.984zM157.696 31.104L159.232 31.104 159.552 29.344 158.24 29.344C157.632 29.344 157.504 28.992 157.632 28.32L159.456 17.856 157.28 17.856 155.488 28.16C155.136 30.176 155.744 31.104 157.696 31.104zM164.992 19.712L163.712 27.008C163.136 30.144 164.736 31.36 166.848 31.36 168.32 31.36 169.184 30.848 169.856 30.24L168.832 28.768C168.384 29.152 167.904 29.472 167.104 29.472 166.048 29.472 165.568 28.768 165.856 27.104L167.168 19.712 170.752 19.712 171.072 17.856 167.488 17.856 168.704 10.944 166.56 10.944 165.312 17.856 163.328 17.856 163.008 19.712 164.992 19.712zM172.928 31.104L175.104 31.104 176.416 23.648C176.896 20.96 178.432 19.52 180.832 19.52 183.104 19.52 184.032 21.12 183.584 23.648L182.816 28.096C182.464 30.08 183.168 31.104 185.056 31.104L186.464 31.104 186.752 29.344 185.536 29.344C184.928 29.344 184.8 28.992 184.928 28.32L185.792 23.456C186.4 19.808 184.512 17.568 181.6 17.568 179.456 17.568 177.984 18.72 176.992 20.32L179.168 8 176.992 8 172.928 31.104zM210.443032 29.9054795C209.100804 30.9165931 207.3739 31.36 205.344 31.36 200.832 31.36 197.376 28.416 198.304 23.04L200.704 9.344 203.008 9.344 200.608 23.072C199.872 27.296 202.016 29.344 205.44 29.344 208.512 29.344 210.496 27.904 211.136 24.192L213.728 9.344 216.032 9.344 213.344 24.48C213.289001 24.7957377 213.225702 25.0991567 213.154295 25.390546L212.618555 28.464C212.490555 29.136 212.618555 29.488 213.226555 29.488L214.538555 29.488 214.218555 31.248 212.682555 31.248C211.352816 31.248 210.646772 30.8173532 210.443032 29.9054795zM217.184 31.104L219.36 31.104 220.672 23.648C221.152 20.96 222.688 19.52 225.088 19.52 227.36 19.52 228.288 21.12 227.84 23.648L227.04 28.16C226.688 30.176 227.328 31.104 229.248 31.104L230.72 31.104 231.04 29.344 229.824 29.344C229.184 29.344 229.056 28.992 229.184 28.32L230.048 23.456C230.688 19.808 228.768 17.568 225.856 17.568 223.712 17.568 222.112 18.752 221.152 20.512L221.696 17.856 219.52 17.856 217.184 31.104zM237.792 13.984C238.624 13.984 239.328 13.376 239.328 12.448 239.328 11.52 238.592 10.88 237.792 10.88 236.96 10.88 236.256 11.52 236.256 12.448 236.256 13.376 236.992 13.984 237.792 13.984zM236.302555 31.248L237.838555 31.248 238.158555 29.488 236.846555 29.488C236.238555 29.488 236.110555 29.136 236.238555 28.464L238.062555 18 235.886555 18 234.094555 28.304C233.742555 30.32 234.350555 31.248 236.302555 31.248zM243.456 19.712L242.176 27.008C241.6 30.144 243.2 31.36 245.312 31.36 246.784 31.36 247.648 30.848 248.32 30.24L247.296 28.768C246.848 29.152 246.368 29.472 245.568 29.472 244.512 29.472 244.032 28.768 244.32 27.104L245.632 19.712 249.216 19.712 249.536 17.856 245.952 17.856 247.168 10.944 245.024 10.944 243.776 17.856 241.792 17.856 241.472 19.712 243.456 19.712zM255.936 38.24C259.424 38.24 261.824 36.352 262.528 32.352L265.088 17.856 262.912 17.856 261.568 25.312C261.088 28 259.584 29.44 257.184 29.44 254.912 29.44 253.984 27.84 254.432 25.312L255.744 17.856 253.568 17.856 252.224 25.504C251.584 29.152 253.504 31.392 256.416 31.392 258.528 31.392 259.968 30.304 260.928 28.896L260.352 32.064C259.84 34.88 258.272 36.32 255.936 36.32 253.952 36.32 252.864 35.424 252.032 33.952L250.304 35.072C251.264 37.024 253.28 38.24 255.936 38.24z"/>
  </g>
</svg>

<svg class="svg-unity-logo" xmlns="http://www.w3.org/2000/svg" viewBox="0 0 266 46"><title>Made With Unity</title><g fill-rule="evenodd"><path d="M7.38 13.73a182.227 182.227 0 0 1-3.07-3.269C3.493 9.568 2.972 9.01 2.746 8.79c-.589-.572-1.072-.845-1.452-.818-.379.026-.67.24-.875.644-.203.404-.331.932-.384 1.585-.05.653-.046 1.31.013 1.97.06.659.175 1.27.347 1.83.17.564.368.954.594 1.174.802.78 1.73 1.697 2.77 2.74 1.202-1.199 2.884-2.337 4.463-3.266a93.644 93.644 0 0 0-.843-.919m27.824 5.664c.799 1.392 1.388 2.73 1.77 4.008.38 1.278.51 2.46.388 3.545-.122 1.084-.58 2.032-1.375 2.842-.978.998-2.16 1.51-3.539 1.541-.01 0-.019.004-.029.004a8.954 8.954 0 0 1-1.066-.047 10.844 10.844 0 0 1-1.648-.32c-.58-.153-1.17-.34-1.782-.593-1.067-.44-2.165-1.013-3.29-1.694a32.599 32.599 0 0 1-1.72-1.107 69.242 69.242 0 0 1-5.145-3.944c-.37-.312-.724-.633-1.088-.95a36.1 36.1 0 0 0-1.407.888 20.336 20.336 0 0 0-3.039 2.454c.72.64 1.453 1.28 2.21 1.92a66.022 66.022 0 0 0 5.02 3.869 39.896 39.896 0 0 0 3.788 2.309l.099.053c.42.226.838.474 1.26.68.188.092.372.168.558.254 1.084.497 2.15.893 3.194 1.169.432.114.862.212 1.288.288 1.628.292 3.189.247 4.684-.133 1.493-.381 2.872-1.218 4.139-2.509 1-1.02 1.613-2.192 1.837-3.515.222-1.323.145-2.731-.23-4.226-.375-1.494-1.005-3.052-1.89-4.673a45.665 45.665 0 0 0-3.088-4.87c-.305-.424-.636-.843-.955-1.265a48.57 48.57 0 0 1-.107 2.13c.41.634.803 1.266 1.163 1.892M21.997 37.441a182.43 182.43 0 0 1-1.31 4.28c-.369 1.15-.594 1.879-.672 2.184-.204.793-.199 1.346.014 1.66.213.313.545.458.998.432.453-.026.977-.18 1.572-.461a11.89 11.89 0 0 0 1.706-.996 9.18 9.18 0 0 0 1.42-1.215c.405-.428.646-.793.725-1.1.276-1.08.611-2.339.999-3.756-1.644-.436-3.476-1.317-5.074-2.214-.158.491-.322.997-.378 1.186"/><path d="M13.014 10.627c.812-1.385 1.68-2.561 2.602-3.529.922-.967 1.886-1.67 2.89-2.108 1.005-.437 2.058-.516 3.161-.236 1.358.345 2.394 1.106 3.11 2.28.006.009.013.014.019.024.18.297.344.611.492.942.22.486.394 1.022.546 1.58.156.577.289 1.18.374 1.832.15 1.14.2 2.374.171 3.684-.014.66-.043 1.332-.104 2.035a68.547 68.547 0 0 1-.859 6.406c-.086.476-.188.942-.282 1.414.491.268.983.527 1.476.768 1.245.61 2.462 1.07 3.655 1.393.196-.94.386-1.892.566-2.864.393-2.12.677-4.209.856-6.263.131-1.515.15-2.98.115-4.419l-.003-.112c-.013-.475-.007-.959-.038-1.426-.014-.207-.04-.404-.059-.608a19.69 19.69 0 0 0-.579-3.337 16.14 16.14 0 0 0-.393-1.254c-.56-1.55-1.38-2.872-2.458-3.97C27.194 1.761 25.777.99 24.019.544 22.631.191 21.305.25 20.042.718c-1.262.47-2.45 1.24-3.563 2.31-1.112 1.072-2.152 2.393-3.12 3.967a45.615 45.615 0 0 0-2.695 5.097c-.215.475-.415.97-.621 1.455a49.458 49.458 0 0 1 1.906-.973 42 42 0 0 1 1.065-1.948m22.778 2.58c1.732-.419 3.191-.756 4.379-1.011 1.186-.257 1.932-.428 2.236-.513.792-.22 1.27-.501 1.438-.842.166-.34.126-.699-.123-1.076-.25-.377-.645-.752-1.187-1.124a11.873 11.873 0 0 0-1.72-.973 9.218 9.218 0 0 0-1.767-.617c-.575-.136-1.014-.16-1.319-.074-1.078.3-2.342.642-3.768 1.016.442 1.636.591 3.655.61 5.48.506-.109 1.028-.22 1.22-.267"/><path d="M16.951 34.357c-1.61-.008-3.068-.169-4.371-.479-1.303-.31-2.396-.79-3.28-1.438-.882-.647-1.478-1.514-1.786-2.606-.378-1.342-.234-2.616.43-3.82l.01-.028c.17-.303.361-.602.574-.895.314-.433.693-.85 1.102-1.26.424-.424.882-.84 1.408-1.24.917-.699 1.965-1.36 3.12-1.989a32.604 32.604 0 0 1 1.822-.928 69.412 69.412 0 0 1 6.004-2.463c.457-.163.914-.308 1.371-.463a35.776 35.776 0 0 0-.07-1.656 20.165 20.165 0 0 0-.615-3.847c-.916.301-1.84.613-2.775.945-2.042.72-4 1.52-5.877 2.393a39.877 39.877 0 0 0-3.999 2.168c-.407.25-.832.486-1.222.746-.174.116-.332.237-.5.355a19.831 19.831 0 0 0-2.614 2.168c-.315.315-.615.637-.894.966-1.069 1.258-1.81 2.625-2.227 4.104-.415 1.477-.376 3.084.114 4.822.387 1.373 1.101 2.486 2.14 3.34 1.04.853 2.304 1.492 3.792 1.916 1.488.423 3.158.659 5.012.707 1.852.048 3.78-.026 5.782-.226.52-.052 1.051-.127 1.577-.192a49.644 49.644 0 0 1-1.8-1.156 42.5 42.5 0 0 1-2.228.056M52 31.104h2.176l1.312-7.456c.48-2.688 1.856-4.128 4.064-4.128 2.048 0 2.72 1.632 2.272 4.128l-1.312 7.456h2.176L64 23.648c.48-2.688 1.728-4.128 3.968-4.128 2.08 0 2.752 1.6 2.304 4.128l-.768 4.512c-.384 2.016.256 2.944 2.176 2.944h1.472l.32-1.76h-1.216c-.608 0-.736-.352-.64-1.024l.864-4.864c.64-3.584-.992-5.888-3.84-5.888-1.92 0-3.68.896-4.768 2.848-.448-1.728-1.696-2.848-3.584-2.848-2.048 0-3.328 1.088-4.288 2.688l.512-2.4h-2.176L52 31.104zm29.536.256c2.016 0 3.712-1.088 4.864-2.976l-.096.416c-.16 1.408.256 2.304 2.208 2.304h1.44l.32-1.76h-1.216c-.608 0-.736-.352-.64-1.024l1.824-10.464h-2.176l-.544 3.616c-.64-2.4-2.592-3.904-4.928-3.904-3.584 0-6.528 3.008-6.528 7.424 0 3.872 2.272 6.368 5.472 6.368zm.544-1.888c-2.304 0-3.776-1.824-3.776-4.448 0-3.2 1.856-5.536 4.672-5.536 2.432 0 3.936 1.984 3.936 4.576 0 3.168-2.112 5.408-4.832 5.408zm16.48 1.888c2.048 0 3.936-1.12 5.024-3.008l-.096.416c-.16 1.408.256 2.336 2.208 2.336h1.472l.288-1.76h-1.216c-.608 0-.736-.32-.608-1.024L109.216 8h-2.176l-2.368 13.248c-.64-2.112-2.592-3.68-5.024-3.68-3.68 0-6.688 3.008-6.688 7.424 0 3.712 2.24 6.368 5.6 6.368zm.576-1.888c-2.432 0-3.936-1.824-3.936-4.448 0-3.2 1.888-5.536 4.832-5.536 2.528 0 4.128 1.984 4.096 4.576 0 3.168-2.144 5.408-4.992 5.408zm13.408-3.808l10.88-1.152c-.064-4-2.112-6.944-6.24-6.944-3.872 0-6.88 3.104-6.88 7.2 0 3.776 2.72 6.592 6.784 6.592 2.4 0 4.224-.832 5.504-2.144l-1.376-1.344c-.928.96-2.208 1.664-4.128 1.664-2.496 0-4.192-1.568-4.544-3.872zM112.512 24c.288-2.752 2.048-4.64 4.64-4.64 2.656 0 3.776 1.856 3.968 3.744l-8.608.896zm24.864 7.392h.352l4.992-7.968c.48-.8.864-1.888.864-1.888s.128 1.12.384 1.984l2.208 7.872h.352l7.488-13.536h-2.272l-4.032 7.328c-.48.864-.896 2.016-.896 2.016s-.16-1.184-.384-2.016l-2.176-7.52h-.288l-4.576 7.616c-.512.864-.992 2.016-.992 2.016s-.128-1.184-.32-2.016l-1.632-7.424h-2.272l3.2 13.536zm21.952-17.408c.832 0 1.536-.608 1.536-1.536s-.736-1.568-1.536-1.568c-.832 0-1.536.64-1.536 1.568s.736 1.536 1.536 1.536zm-1.632 17.12h1.536l.32-1.76h-1.312c-.608 0-.736-.352-.608-1.024l1.824-10.464h-2.176l-1.792 10.304c-.352 2.016.256 2.944 2.208 2.944zm7.296-11.392l-1.28 7.296c-.576 3.136 1.024 4.352 3.136 4.352 1.472 0 2.336-.512 3.008-1.12l-1.024-1.472c-.448.384-.928.704-1.728.704-1.056 0-1.536-.704-1.248-2.368l1.312-7.392h3.584l.32-1.856h-3.584l1.216-6.912h-2.144l-1.248 6.912h-1.984l-.32 1.856h1.984zm7.936 11.392h2.176l1.312-7.456c.48-2.688 2.016-4.128 4.416-4.128 2.272 0 3.2 1.6 2.752 4.128l-.768 4.448c-.352 1.984.352 3.008 2.24 3.008h1.408l.288-1.76h-1.216c-.608 0-.736-.352-.608-1.024l.864-4.864c.608-3.648-1.28-5.888-4.192-5.888-2.144 0-3.616 1.152-4.608 2.752L179.168 8h-2.176l-4.064 23.104zm37.515-1.199c-1.342 1.012-3.07 1.455-5.099 1.455-4.512 0-7.968-2.944-7.04-8.32l2.4-13.696h2.304l-2.4 13.728c-.736 4.224 1.408 6.272 4.832 6.272 3.072 0 5.056-1.44 5.696-5.152l2.592-14.848h2.304l-2.688 15.136c-.055.316-.118.62-.19.91l-.535 3.074c-.128.672 0 1.024.608 1.024h1.312l-.32 1.76h-1.536c-1.33 0-2.036-.43-2.24-1.343zm6.741 1.199h2.176l1.312-7.456c.48-2.688 2.016-4.128 4.416-4.128 2.272 0 3.2 1.6 2.752 4.128l-.8 4.512c-.352 2.016.288 2.944 2.208 2.944h1.472l.32-1.76h-1.216c-.64 0-.768-.352-.64-1.024l.864-4.864c.64-3.648-1.28-5.888-4.192-5.888-2.144 0-3.744 1.184-4.704 2.944l.544-2.656h-2.176l-2.336 13.248zm20.608-17.12c.832 0 1.536-.608 1.536-1.536s-.736-1.568-1.536-1.568c-.832 0-1.536.64-1.536 1.568s.736 1.536 1.536 1.536zm-1.49 17.264h1.537l.32-1.76h-1.312c-.608 0-.736-.352-.608-1.024L238.063 18h-2.176l-1.792 10.304c-.352 2.016.256 2.944 2.208 2.944zm7.154-11.536l-1.28 7.296c-.576 3.136 1.024 4.352 3.136 4.352 1.472 0 2.336-.512 3.008-1.12l-1.024-1.472c-.448.384-.928.704-1.728.704-1.056 0-1.536-.704-1.248-2.368l1.312-7.392h3.584l.32-1.856h-3.584l1.216-6.912h-2.144l-1.248 6.912h-1.984l-.32 1.856h1.984zm12.48 18.528c3.488 0 5.888-1.888 6.592-5.888l2.56-14.496h-2.176l-1.344 7.456c-.48 2.688-1.984 4.128-4.384 4.128-2.272 0-3.2-1.6-2.752-4.128l1.312-7.456h-2.176l-1.344 7.648c-.64 3.648 1.28 5.888 4.192 5.888 2.112 0 3.552-1.088 4.512-2.496l-.576 3.168c-.512 2.816-2.08 4.256-4.416 4.256-1.984 0-3.072-.896-3.904-2.368l-1.728 1.12c.96 1.952 2.976 3.168 5.632 3.168z"/></g></svg>
